static/img/kroki/591ef349e0219f4661f4a12c5a4b13a9.svg

<?xml version="1.0" encoding="us-ascii" standalone="no"?><svg xmlns="http://www.w3.org/2000/svg" xmlns:xlink="http://www.w3.org/1999/xlink" contentStyleType="text/css" height="152px" preserveAspectRatio="none" style="width:409px;height:152px;" version="1.1" viewBox="0 0 409 152" width="409px" zoomAndPan="magnify"><defs/><g><!--class azure_virtual_hub--><g id="elem_azure_virtual_hub"><rect codeLine="22" fill="#3D176E" height="39.7891" id="azure_virtual_hub" rx="2.5" ry="2.5" style="stroke:#000D19;stroke-width:0.5;" width="193" x="7" y="106.79"/><ellipse cx="22" cy="126.6845" fill="#ADD1B2" rx="11" ry="11" style="stroke:#181818;stroke-width:1.0;"/><path d="M24.9688,132.3252 Q24.3906,132.622 23.75,132.7627 Q23.1094,132.9189 22.4063,132.9189 Q19.9063,132.9189 18.5781,131.2783 Q17.2656,129.622 17.2656,126.497 Q17.2656,123.372 18.5781,121.7158 Q19.9063,120.0595 22.4063,120.0595 Q23.1094,120.0595 23.75,120.2158 Q24.4063,120.372 24.9688,120.6689 L24.9688,123.3877 Q24.3438,122.8095 23.75,122.5439 Q23.1563,122.2627 22.5313,122.2627 Q21.1875,122.2627 20.5,123.3408 Q19.8125,124.4033 19.8125,126.497 Q19.8125,128.5908 20.5,129.6689 Q21.1875,130.7314 22.5313,130.7314 Q23.1563,130.7314 23.75,130.4658 Q24.3438,130.1845 24.9688,129.6064 L24.9688,132.3252 Z " fill="#000000"/><text fill="#D9B8FF" font-family="Helvetica" font-size="17" lengthAdjust="spacing" textLength="151" x="41" y="132.5698">azure_virtual_hub</text></g><!--class azure_virtual_wan--><g id="elem_azure_virtual_wan"><rect codeLine="24" fill="#3D176E" height="39.7891" id="azure_virtual_wan" rx="2.5" ry="2.5" style="stroke:#000D19;stroke-width:0.5;" width="197" x="112" y="7"/><ellipse cx="127" cy="26.8945" fill="#ADD1B2" rx="11" ry="11" style="stroke:#181818;stroke-width:1.0;"/><path d="M129.9688,32.5352 Q129.3906,32.832 128.75,32.9727 Q128.1094,33.1289 127.4063,33.1289 Q124.9063,33.1289 123.5781,31.4883 Q122.2656,29.832 122.2656,26.707 Q122.2656,23.582 123.5781,21.9258 Q124.9063,20.2695 127.4063,20.2695 Q128.1094,20.2695 128.75,20.4258 Q129.4063,20.582 129.9688,20.8789 L129.9688,23.5977 Q129.3438,23.0195 128.75,22.7539 Q128.1563,22.4727 127.5313,22.4727 Q126.1875,22.4727 125.5,23.5508 Q124.8125,24.6133 124.8125,26.707 Q124.8125,28.8008 125.5,29.8789 Q126.1875,30.9414 127.5313,30.9414 Q128.1563,30.9414 128.75,30.6758 Q129.3438,30.3945 129.9688,29.8164 L129.9688,32.5352 Z " fill="#000000"/><text fill="#D9B8FF" font-family="Helvetica" font-size="17" lengthAdjust="spacing" textLength="155" x="146" y="32.7798">azure_virtual_wan</text></g><!--class azure_vpn_site--><g id="elem_azure_vpn_site"><rect codeLine="26" fill="#3D176E" height="39.7891" id="azure_vpn_site" rx="2.5" ry="2.5" style="stroke:#000D19;stroke-width:0.5;" width="167" x="235" y="106.79"/><ellipse cx="250" cy="126.6845" fill="#ADD1B2" rx="11" ry="11" style="stroke:#181818;stroke-width:1.0;"/><path d="M252.9688,132.3252 Q252.3906,132.622 251.75,132.7627 Q251.1094,132.9189 250.4063,132.9189 Q247.9063,132.9189 246.5781,131.2783 Q245.2656,129.622 245.2656,126.497 Q245.2656,123.372 246.5781,121.7158 Q247.9063,120.0595 250.4063,120.0595 Q251.1094,120.0595 251.75,120.2158 Q252.4063,120.372 252.9688,120.6689 L252.9688,123.3877 Q252.3438,122.8095 251.75,122.5439 Q251.1563,122.2627 250.5313,122.2627 Q249.1875,122.2627 248.5,123.3408 Q247.8125,124.4033 247.8125,126.497 Q247.8125,128.5908 248.5,129.6689 Q249.1875,130.7314 250.5313,130.7314 Q251.1563,130.7314 251.75,130.4658 Q252.3438,130.1845 252.9688,129.6064 L252.9688,132.3252 Z " fill="#000000"/><text fill="#D9B8FF" font-family="Helvetica" font-size="17" lengthAdjust="spacing" textLength="125" x="269" y="132.5698">azure_vpn_site</text></g><!--link azure_virtual_wan to azure_virtual_hub--><g id="link_azure_virtual_wan_azure_virtual_hub"><path codeLine="28" d="M189.36,47.22 C170.6,64.36 147.7674,85.2206 129.0274,102.3606 " fill="none" id="azure_virtual_wan-to-azure_virtual_hub" style="stroke:#1A83AF;stroke-width:2.0;"/><polygon fill="#1A83AF" points="124.6,106.41,133.9408,103.2875,128.2895,103.0355,128.5415,97.3842,124.6,106.41" style="stroke:#1A83AF;stroke-width:2.0;"/></g><!--link azure_virtual_wan to azure_vpn_site--><g id="link_azure_virtual_wan_azure_vpn_site"><path codeLine="29" d="M231.84,47.22 C250.77,64.36 273.8433,85.2417 292.7633,102.3817 " fill="none" id="azure_virtual_wan-to-azure_vpn_site" style="stroke:#1A83AF;stroke-width:2.0;"/><polygon fill="#1A83AF" points="297.21,106.41,293.2256,97.4031,293.5045,103.0531,287.8545,103.332,297.21,106.41" style="stroke:#1A83AF;stroke-width:2.0;"/></g><!--SRC=[ZP1DIyD048Rl_HKBFHSQWwQz2B5Gz5B4UXCfa-niipJP3REJXbRyxzeFPStsm-i-pyxxpXHQei2gveseiCgGNC-jjAc1e18faMqdjhGa-ag1YfCkd5h3LuKPL2WUiLmZwnownckXyvL1vyIDXnuWNot9DaOUnZE1STy83NlMf0JdKcRIMSFebP7ZRAHKr-mExSSoIkumq2n9fACo70vbDEugLwCkxlrhpFKMHUGVRMOPWvf1nDwws79dU2M3HN_usOxF8AKsIt7hlRqSEf51-lC-Bq3QTcShA9qVunW9BMzgd0HRuNWaLN9IVZedvxlB2TWsX8kr9cwWN1HD9ZvwdoTP2oPajLaupRW7eJvuwqVfA4wdxuFxCEcV7uuHNm00]--></g></svg>

<svg xmlns="http://www.w3.org/2000/svg" width="409" height="152" viewBox="0 0 409 152"><rect width="193" height="39.789" x="7" y="106.79" fill="#3D176E" rx="2.5" ry="2.5" style="stroke:#000d19;stroke-width:.5"/><circle cx="22" cy="126.684" r="11" fill="#ADD1B2" style="stroke:#181818;stroke-width:1"/><path d="M24.969 132.325q-.578.297-1.219.438-.64.156-1.344.156-2.5 0-3.828-1.64-1.312-1.657-1.312-4.782t1.312-4.781q1.328-1.656 3.828-1.656.703 0 1.344.156.656.156 1.219.453v2.719q-.625-.579-1.219-.844-.594-.281-1.219-.281-1.343 0-2.031 1.078-.687 1.062-.687 3.156t.687 3.172q.688 1.062 2.031 1.062.625 0 1.219-.265.594-.281 1.219-.86z"/><text x="41" y="132.57" fill="#D9B8FF" font-family="Helvetica" font-size="17" textLength="151">azure_virtual_hub</text><rect width="197" height="39.789" x="112" y="7" fill="#3D176E" rx="2.5" ry="2.5" style="stroke:#000d19;stroke-width:.5"/><circle cx="127" cy="26.895" r="11" fill="#ADD1B2" style="stroke:#181818;stroke-width:1"/><path d="M129.969 32.535q-.578.297-1.219.438-.64.156-1.344.156-2.5 0-3.828-1.64-1.312-1.657-1.312-4.782t1.312-4.781q1.328-1.656 3.828-1.656.703 0 1.344.156.656.156 1.219.453v2.719q-.625-.578-1.219-.844-.594-.281-1.219-.281-1.344 0-2.031 1.078-.687 1.062-.687 3.156t.687 3.172q.688 1.062 2.031 1.062.625 0 1.219-.265.594-.281 1.219-.86z"/><text x="146" y="32.78" fill="#D9B8FF" font-family="Helvetica" font-size="17" textLength="155">azure_virtual_wan</text><rect width="167" height="39.789" x="235" y="106.79" fill="#3D176E" rx="2.5" ry="2.5" style="stroke:#000d19;stroke-width:.5"/><circle cx="250" cy="126.684" r="11" fill="#ADD1B2" style="stroke:#181818;stroke-width:1"/><path d="M252.969 132.325q-.578.297-1.219.438-.64.156-1.344.156-2.5 0-3.828-1.64-1.312-1.657-1.312-4.782t1.312-4.781q1.328-1.656 3.828-1.656.703 0 1.344.156.656.156 1.219.453v2.719q-.625-.579-1.219-.844-.594-.281-1.219-.281-1.344 0-2.031 1.078-.687 1.062-.687 3.156t.687 3.172q.688 1.062 2.031 1.062.625 0 1.219-.265.594-.281 1.219-.86z"/><text x="269" y="132.57" fill="#D9B8FF" font-family="Helvetica" font-size="17" textLength="125">azure_vpn_site</text><path fill="none" d="M189.36 47.22c-18.76 17.14-41.593 38-60.333 55.14" style="stroke:#1a83af;stroke-width:2"/><path fill="#1A83AF" d="m124.6 106.41 9.34-3.123-5.65-.252.252-5.65z" style="stroke:#1a83af;stroke-width:2"/><path fill="none" d="M231.84 47.22c18.93 17.14 42.003 38.022 60.923 55.162" style="stroke:#1a83af;stroke-width:2"/><path fill="#1A83AF" d="m297.21 106.41-3.984-9.007.279 5.65-5.65.279z" style="stroke:#1a83af;stroke-width:2"/></svg>
